comrade-birdie.svg

<svg height="144" viewBox="0 0 128 108" width="128pt" xmlns="http://www.w3.org/2000/svg"><path d="m36.48 0h3.82c7.57.92 14.03 5.32 20.08 9.64 7.86 6 15.17 12.85 21.06 20.82 3.17 4.36 6.13 9.13 6.92 14.55.44 3.22-.36 6.76-2.91 8.94-5.01 2.66-10.49-.65-13.9-4.35.15-2.31 1.33-4.92-.09-7.06-3.41-5.4-7.6-10.52-13.09-13.91-3.44-2.03-7.49-3.53-11.52-2.69-.31 1.78-.11 4.04 2.22 4.01 8.18 1.54 14.05 8.06 18.3 14.78-16.45.08-32.89.01-49.34.04-1.05.09-1.99-.19-2.83-.84-.29-2.69.66-5.69-1.1-8.02-2.75-5.16-5.74-11.37-3.4-17.23 5.09-9.72 14.83-17.12 25.78-18.68m-15.63 21.19c-2.29.01-4.77.72-6.88-.5-.71.41-.8.86-.27 1.34 1.76 1.31 4.44 2.01 5.47 4.02-.68 2.05-1.29 4.12-1.97 6.16 2.15-.26 3.86-2.63 5.86-3.69 2.2.77 3.81 3.21 5.96 3.63-.24-2.31-1.45-4.4-1.71-6.68 1.74-1.55 4.18-2.35 5.46-4.37-2.48.17-5.05.5-7.49 0-1.07-1.83-.52-4.81-2.26-6.01-.88 1.9-1.29 4.13-2.17 6.1z" fill="#f00"/><path d="m20.85 21.19c.88-1.97 1.29-4.2 2.17-6.1 1.74 1.2 1.19 4.18 2.26 6.01 2.44.5 5.01.17 7.49 0-1.28 2.02-3.72 2.82-5.46 4.37.26 2.28 1.47 4.37 1.71 6.68-2.15-.42-3.76-2.86-5.96-3.63-2 1.06-3.71 3.43-5.86 3.69.68-2.04 1.29-4.11 1.97-6.16-1.03-2.01-3.71-2.71-5.47-4.02-.53-.48-.44-.93.27-1.34 2.11 1.22 4.59.51 6.88.5z" fill="#fecf00"/><path d="m46.85 25.94c4.03-.84 8.08.66 11.52 2.69 5.49 3.39 9.68 8.51 13.09 13.91 1.42 2.14.24 4.75.09 7.06-1.51-1.52-2.8-3.24-4.18-4.87-4.25-6.72-10.12-13.24-18.3-14.78-2.33.03-2.53-2.23-2.22-4.01z" fill="#ba0000"/><path d="m15.2 43.93c.84.65 1.78.93 2.83.84 16.45-.03 32.89.04 49.34-.04 1.38 1.63 2.67 3.35 4.18 4.87 3.41 3.7 8.89 7.01 13.9 4.35 3.6 5.76 8.42 10.58 13 15.56 9.97 11.54 19.2 23.7 27.98 36.16.39.45 1.18 1.35 1.57 1.8v.53h-7.8c-8.55-15.08-20.43-30.09-37.61-35.52-8.73-2.02-14.57 6.63-17.89 13.38-1.28-1.22-2.37-3.46-4.51-2.7-3.69 1.35-6.89 4.17-11 4.24-4.11.62-7.93-1.3-11.85-2.08-1.49.67-1.87 2.33-2.48 3.67-1.92-1.69-3.87-3.32-5.86-4.93-3.44-3.08-7.2-5.81-10.23-9.34-5.82-7.16-6.85-16.77-5.47-25.6.59-1.75 1.08-3.53 1.9-5.19m15.99 4.58c-3.55.89-5.58 5.6-3.04 8.51 2.36 3.4 8.32 2.73 9.63-1.27 1.87-3.93-2.55-8.56-6.59-7.24z" fill="#63b446"/><path d="m50.02 92.82c5.29-.16 9.79-3.1 14.08-5.86-1.87 5.18-3.29 10.54-3.7 16.06.05 1.63-.66 3.64.62 4.98h-20.56c-.16-.47-.49-1.4-.66-1.86 1.39-5.27.04-10.86-3.16-15.19 4.39 1.07 8.79 2.5 13.38 1.87z" fill="#63b446"/><path d="m31.19 48.51c4.04-1.32 8.46 3.31 6.59 7.24-1.31 4-7.27 4.67-9.63 1.27-2.54-2.91-.51-7.62 3.04-8.51z" fill="#293133"/><path d="m2.8 90.17c-6.06-13.93-1.82-31.93 10.5-41.05-1.38 8.83-.35 18.44 5.47 25.6-3.92 5.74-4.9 13.42-3.46 20.16-.29 1.95-2.07 4.05-4.22 3.12-4.02-.79-6.75-4.26-8.29-7.83z" fill="#fea901"/><path d="m64.7 85.86c3.32-6.75 9.16-15.4 17.89-13.38 17.18 5.43 29.06 20.44 37.61 35.52h-59.18c-1.28-1.34-.57-3.35-.62-4.98.41-5.52 1.83-10.88 3.7-16.06-4.29 2.76-8.79 5.7-14.08 5.86-4.59.63-8.99-.8-13.38-1.87-.58-.66-1.18-1.31-1.78-1.96.61-1.34.99-3 2.48-3.67 3.92.78 7.74 2.7 11.85 2.08 4.11-.07 7.31-2.89 11-4.24 2.14-.76 3.23 1.48 4.51 2.7z" fill="#49932a"/><path d="m15.31 94.88c-1.44-6.74-.46-14.42 3.46-20.16 3.03 3.53 6.79 6.26 10.23 9.34-3.71 4.52-8.26 8.51-13.69 10.82z" fill="#fe8b01"/></svg>

<svg width="128pt" height="144" viewBox="0 0 128 108" version="1.1" xmlns="http://www.w3.org/2000/svg"><g id="#ff0000ff"><path fill="red" opacity="1" d="M 36.48 0.00 L 40.30 0.00 C 47.87 0.92 54.33 5.32 60.38 9.64 C 68.24 15.64 75.55 22.49 81.44 30.46 C 84.61 34.82 87.57 39.59 88.36 45.01 C 88.80 48.23 88.00 51.77 85.45 53.95 C 80.44 56.61 74.96 53.30 71.55 49.60 C 71.70 47.29 72.88 44.68 71.46 42.54 C 68.05 37.14 63.86 32.02 58.37 28.63 C 54.93 26.60 50.88 25.10 46.85 25.94 C 46.54 27.72 46.74 29.98 49.07 29.95 C 57.25 31.49 63.12 38.01 67.37 44.73 C 50.92 44.81 34.48 44.74 18.03 44.77 C 16.98 44.86 16.04 44.58 15.20 43.93 C 14.91 41.24 15.86 38.24 14.10 35.91 C 11.35 30.75 8.36 24.54 10.70 18.68 C 15.79 8.96 25.53 1.56 36.48 0.00 M 20.85 21.19 C 18.56 21.20 16.08 21.91 13.97 20.69 C 13.26 21.10 13.17 21.55 13.70 22.03 C 15.46 23.34 18.14 24.04 19.17 26.05 C 18.49 28.10 17.88 30.17 17.20 32.21 C 19.35 31.95 21.06 29.58 23.06 28.52 C 25.26 29.29 26.87 31.73 29.02 32.15 C 28.78 29.84 27.57 27.75 27.31 25.47 C 29.05 23.92 31.49 23.12 32.77 21.10 C 30.29 21.27 27.72 21.60 25.28 21.10 C 24.21 19.27 24.76 16.29 23.02 15.09 C 22.14 16.99 21.73 19.22 20.85 21.19 Z"/></g><g id="#fecf00ff"><path fill="#fecf00" opacity="1" d="M 20.85 21.19 C 21.73 19.22 22.14 16.99 23.02 15.09 C 24.76 16.29 24.21 19.27 25.28 21.10 C 27.72 21.60 30.29 21.27 32.77 21.10 C 31.49 23.12 29.05 23.92 27.31 25.47 C 27.57 27.75 28.78 29.84 29.02 32.15 C 26.87 31.73 25.26 29.29 23.06 28.52 C 21.06 29.58 19.35 31.95 17.20 32.21 C 17.88 30.17 18.49 28.10 19.17 26.05 C 18.14 24.04 15.46 23.34 13.70 22.03 C 13.17 21.55 13.26 21.10 13.97 20.69 C 16.08 21.91 18.56 21.20 20.85 21.19 Z"/></g><g id="#ba0000ff"><path fill="#ba0000" opacity="1" d="M 46.85 25.94 C 50.88 25.10 54.93 26.60 58.37 28.63 C 63.86 32.02 68.05 37.14 71.46 42.54 C 72.88 44.68 71.70 47.29 71.55 49.60 C 70.04 48.08 68.75 46.36 67.37 44.73 C 63.12 38.01 57.25 31.49 49.07 29.95 C 46.74 29.98 46.54 27.72 46.85 25.94 Z"/></g><g id="#63b446ff"><path fill="#63b446" opacity="1" d="M 15.20 43.93 C 16.04 44.58 16.98 44.86 18.03 44.77 C 34.48 44.74 50.92 44.81 67.37 44.73 C 68.75 46.36 70.04 48.08 71.55 49.60 C 74.96 53.30 80.44 56.61 85.45 53.95 C 89.05 59.71 93.87 64.53 98.45 69.51 C 108.42 81.05 117.65 93.21 126.43 105.67 C 126.82 106.12 127.61 107.02 128.00 107.47 L 128.00 108.00 L 120.20 108.00 C 111.65 92.92 99.77 77.91 82.59 72.48 C 73.86 70.46 68.02 79.11 64.70 85.86 C 63.42 84.64 62.33 82.40 60.19 83.16 C 56.50 84.51 53.30 87.33 49.19 87.40 C 45.08 88.02 41.26 86.10 37.34 85.32 C 35.85 85.99 35.47 87.65 34.86 88.99 C 32.94 87.30 30.99 85.67 29.00 84.06 C 25.56 80.98 21.80 78.25 18.77 74.72 C 12.95 67.56 11.92 57.95 13.30 49.12 C 13.89 47.37 14.38 45.59 15.20 43.93 M 31.19 48.51 C 27.64 49.40 25.61 54.11 28.15 57.02 C 30.51 60.42 36.47 59.75 37.78 55.75 C 39.65 51.82 35.23 47.19 31.19 48.51 Z"/><path fill="#63b446" opacity="1" d="M 50.02 92.82 C 55.31 92.66 59.81 89.72 64.10 86.96 C 62.23 92.14 60.81 97.50 60.40 103.02 C 60.45 104.65 59.74 106.66 61.02 108.00 L 40.46 108.00 C 40.30 107.53 39.97 106.60 39.80 106.14 C 41.19 100.87 39.84 95.28 36.64 90.95 C 41.03 92.02 45.43 93.45 50.02 92.82 Z"/></g><g id="#293133ff"><path fill="#293133" opacity="1" d="M 31.19 48.51 C 35.23 47.19 39.65 51.82 37.78 55.75 C 36.47 59.75 30.51 60.42 28.15 57.02 C 25.61 54.11 27.64 49.40 31.19 48.51 Z"/></g><g id="#fea901ff"><path fill="#fea901" opacity="1" d="M 2.80 90.17 C -3.26 76.24 0.98 58.24 13.30 49.12 C 11.92 57.95 12.95 67.56 18.77 74.72 C 14.85 80.46 13.87 88.14 15.31 94.88 C 15.02 96.83 13.24 98.93 11.09 98.00 C 7.07 97.21 4.34 93.74 2.80 90.17 Z"/></g><g id="#49932aff"><path fill="#49932a" opacity="1" d="M 64.70 85.86 C 68.02 79.11 73.86 70.46 82.59 72.48 C 99.77 77.91 111.65 92.92 120.20 108.00 L 61.02 108.00 C 59.74 106.66 60.45 104.65 60.40 103.02 C 60.81 97.50 62.23 92.14 64.10 86.96 C 59.81 89.72 55.31 92.66 50.02 92.82 C 45.43 93.45 41.03 92.02 36.64 90.95 C 36.06 90.29 35.46 89.64 34.86 88.99 C 35.47 87.65 35.85 85.99 37.34 85.32 C 41.26 86.10 45.08 88.02 49.19 87.40 C 53.30 87.33 56.50 84.51 60.19 83.16 C 62.33 82.40 63.42 84.64 64.70 85.86 Z"/></g><g id="#fe8b01ff"><path fill="#fe8b01" opacity="1" d="M 15.31 94.88 C 13.87 88.14 14.85 80.46 18.77 74.72 C 21.80 78.25 25.56 80.98 29.00 84.06 C 25.29 88.58 20.74 92.57 15.31 94.88 Z"/></g></svg>
